austria/municipalities/41125.svg

<?xml version="1.0" encoding="UTF-8"?>
<!DOCTYPE svg PUBLIC "-//W3C//DTD SVG 1.1//EN" "http://www.w3.org/Graphics/SVG/1.1/DTD/svg11.dtd">
<svg xmlns="http://www.w3.org/2000/svg" version="1.1" width="166px" height="207px" style="shape-rendering:geometricPrecision; text-rendering:geometricPrecision; image-rendering:optimizeQuality; fill-rule:evenodd; clip-rule:evenodd" xmlns:xlink="http://www.w3.org/1999/xlink">
<g><path style="opacity:1" fill="#010100" d="M -0.5,-0.5 C 54.8333,-0.5 110.167,-0.5 165.5,-0.5C 165.5,43.8333 165.5,88.1667 165.5,132.5C 159.762,165.428 141.429,188.595 110.5,202C 105.336,203.369 100.336,204.869 95.5,206.5C 86.8333,206.5 78.1667,206.5 69.5,206.5C 29.557,196.554 6.22367,171.221 -0.5,130.5C -0.5,86.8333 -0.5,43.1667 -0.5,-0.5 Z"/></g>
<g><path style="opacity:1" fill="#066335" d="M 19.5,121.5 C 14.6277,123.469 9.62773,124.636 4.5,125C 10.1593,120.499 14.4927,114.999 17.5,108.5C 16.21,107.592 14.8767,107.759 13.5,109C 10.1667,109.667 6.83333,109.667 3.5,109C 9.92409,104.087 14.5908,97.9206 17.5,90.5C 16.21,89.5923 14.8767,89.759 13.5,91C 10.1667,91.6667 6.83333,91.6667 3.5,91C 9.09553,85.5665 13.7622,79.3998 17.5,72.5C 17.3333,72.1667 17.1667,71.8333 17,71.5C 13.4054,73.4559 9.57205,73.9559 5.5,73C 10.0946,68.7423 13.928,63.9089 17,58.5C 17.7805,57.0563 17.6139,55.723 16.5,54.5C 14.4841,55.7059 12.4841,55.7059 10.5,54.5C 14.3854,49.8433 16.7187,44.51 17.5,38.5C 15.4727,38.6621 13.4727,38.4955 11.5,38C 17.3318,30.1581 20.8318,21.3248 22,11.5C 23.1621,21.3147 26.6621,30.148 32.5,38C 30.5273,38.4955 28.5273,38.6621 26.5,38.5C 27.3778,44.6378 29.7111,50.1378 33.5,55C 31.4325,55.6869 29.4325,55.5202 27.5,54.5C 26.4173,55.365 26.2506,56.365 27,57.5C 29.2913,63.794 33.1246,68.9607 38.5,73C 34.664,73.3057 30.9973,73.4724 27.5,73.5C 30.0113,80.0146 33.678,85.8479 38.5,91C 34.7559,91.9285 31.2559,91.4285 28,89.5C 27.7536,93.1759 28.7536,96.5092 31,99.5C 33.6868,103.021 36.8535,106.021 40.5,108.5C 38.8333,108.833 37.1667,109.167 35.5,109.5C 32.3154,109.389 29.3154,108.889 26.5,108C 29.3104,115.148 33.9771,120.815 40.5,125C 33.4376,125.423 27.2709,123.257 22,118.5C 20.583,119.078 19.7496,120.078 19.5,121.5 Z"/></g>
<g><path style="opacity:1" fill="#076335" d="M 145.5,121.5 C 143.758,117.596 142.091,117.596 140.5,121.5C 139.508,121.328 138.842,121.662 138.5,122.5C 134.235,123.982 129.902,124.816 125.5,125C 131.159,120.499 135.493,114.999 138.5,108.5C 137.21,107.592 135.877,107.759 134.5,109C 131.167,109.667 127.833,109.667 124.5,109C 130.924,104.087 135.591,97.9206 138.5,90.5C 137.21,89.5923 135.877,89.759 134.5,91C 131.833,91.6667 129.167,91.6667 126.5,91C 132.301,85.55 136.135,79.05 138,71.5C 134.405,73.4559 130.572,73.9559 126.5,73C 131.095,68.7423 134.928,63.9089 138,58.5C 138.781,57.0563 138.614,55.723 137.5,54.5C 135.484,55.7059 133.484,55.7059 131.5,54.5C 135.476,49.8818 137.809,44.5485 138.5,38.5C 136.473,38.6621 134.473,38.4955 132.5,38C 138.609,29.9288 142.109,20.7621 143,10.5C 144.152,20.6322 147.652,29.7989 153.5,38C 151.527,38.4955 149.527,38.6621 147.5,38.5C 148.375,44.6279 150.709,50.1279 154.5,55C 152.432,55.6869 150.432,55.5202 148.5,54.5C 147.417,55.365 147.251,56.365 148,57.5C 150.291,63.794 154.125,68.9607 159.5,73C 155.664,73.3057 151.997,73.4724 148.5,73.5C 151.738,80.1393 156.071,85.9727 161.5,91C 157.1,91.9777 152.933,91.4777 149,89.5C 148.754,93.1759 149.754,96.5092 152,99.5C 154.687,103.021 157.853,106.021 161.5,108.5C 159.833,108.833 158.167,109.167 156.5,109.5C 153.315,109.389 150.315,108.889 147.5,108C 150.31,115.148 154.977,120.815 161.5,125C 155.899,125.192 150.566,124.025 145.5,121.5 Z"/></g>
<g><path style="opacity:1" fill="#ef9b22" d="M 57.5,41.5 C 58.5,41.5 59.5,41.5 60.5,41.5C 60.5,42.8333 60.5,44.1667 60.5,45.5C 62.1667,45.5 63.8333,45.5 65.5,45.5C 65.5,46.8333 65.5,48.1667 65.5,49.5C 63.8333,49.5 62.1667,49.5 60.5,49.5C 60.5,51.5 60.5,53.5 60.5,55.5C 59.5,55.5 58.5,55.5 57.5,55.5C 57.5,53.5 57.5,51.5 57.5,49.5C 56.1667,49.5 54.8333,49.5 53.5,49.5C 53.5,48.1667 53.5,46.8333 53.5,45.5C 54.8333,45.5 56.1667,45.5 57.5,45.5C 57.5,44.1667 57.5,42.8333 57.5,41.5 Z"/></g>
<g><path style="opacity:1" fill="#f19b1f" d="M 101.5,41.5 C 103.176,42.1834 103.843,43.5168 103.5,45.5C 105.167,45.5 106.833,45.5 108.5,45.5C 108.5,46.8333 108.5,48.1667 108.5,49.5C 106.833,49.5 105.167,49.5 103.5,49.5C 102.833,57.5 102.167,57.5 101.5,49.5C 99.8333,49.5 98.1667,49.5 96.5,49.5C 96.5,48.1667 96.5,46.8333 96.5,45.5C 98.1667,45.5 99.8333,45.5 101.5,45.5C 101.5,44.1667 101.5,42.8333 101.5,41.5 Z"/></g>
<g><path style="opacity:1" fill="#a71010" d="M 60.5,57.5 C 75.3428,57.1707 90.0095,57.504 104.5,58.5C 90.5,58.5 76.5,58.5 62.5,58.5C 63.1667,61.5 63.8333,64.5 64.5,67.5C 62.5968,64.4701 61.2635,61.1368 60.5,57.5 Z"/></g>
<g><path style="opacity:1" fill="#ca0001" d="M 104.5,58.5 C 106.648,67.3117 110.314,75.3117 115.5,82.5C 115.748,86.7443 117.081,90.5776 119.5,94C 105.171,94.4999 90.8372,94.6666 76.5,94.5C 72.2254,85.6179 68.2254,76.6179 64.5,67.5C 63.8333,64.5 63.1667,61.5 62.5,58.5C 76.5,58.5 90.5,58.5 104.5,58.5 Z"/></g>
<g><path style="opacity:1" fill="#c60303" d="M 58.5,59.5 C 63.5396,70.2684 68.2062,81.2684 72.5,92.5C 62.8893,94.4743 52.8893,95.141 42.5,94.5C 42.5,93.1667 42.5,91.8333 42.5,90.5C 47.3384,79.4911 52.1717,68.4911 57,57.5C 57.2784,58.4158 57.7784,59.0825 58.5,59.5 Z"/></g>
<g><path style="opacity:1" fill="#a91110" d="M 104.5,58.5 C 108.916,66.0498 112.583,74.0498 115.5,82.5C 110.314,75.3117 106.648,67.3117 104.5,58.5 Z"/></g>
<g><path style="opacity:1" fill="#a61111" d="M 42.5,90.5 C 42.5,91.8333 42.5,93.1667 42.5,94.5C 52.8893,95.141 62.8893,94.4743 72.5,92.5C 73.404,93.209 73.7373,94.209 73.5,95.5C 62.5,95.5 51.5,95.5 40.5,95.5C 40.5,94.5 40.5,93.5 40.5,92.5C 41.1667,91.8333 41.8333,91.1667 42.5,90.5 Z"/></g>
<g><path style="opacity:1" fill="#a71010" d="M 115.5,82.5 C 117.878,86.6208 119.878,90.9541 121.5,95.5C 106.324,95.8294 91.324,95.4961 76.5,94.5C 90.8372,94.6666 105.171,94.4999 119.5,94C 117.081,90.5776 115.748,86.7443 115.5,82.5 Z"/></g>
<g><path style="opacity:1" fill="#270100" d="M 60.5,57.5 C 61.2635,61.1368 62.5968,64.4701 64.5,67.5C 68.2254,76.6179 72.2254,85.6179 76.5,94.5C 91.324,95.4961 106.324,95.8294 121.5,95.5C 120.791,96.404 119.791,96.7373 118.5,96.5C 103.5,96.5 88.5,96.5 73.5,96.5C 72.8333,96.5 72.1667,96.5 71.5,96.5C 61.8333,96.5 52.1667,96.5 42.5,96.5C 41.5,96.5 40.5,96.5 39.5,96.5C 39.2322,94.901 39.5655,93.5676 40.5,92.5C 40.5,93.5 40.5,94.5 40.5,95.5C 51.5,95.5 62.5,95.5 73.5,95.5C 73.7373,94.209 73.404,93.209 72.5,92.5C 68.2062,81.2684 63.5396,70.2684 58.5,59.5C 59.1667,58.8333 59.8333,58.1667 60.5,57.5 Z"/></g>
<g><path style="opacity:1" fill="#fefefe" d="M 42.5,96.5 C 52.1667,96.5 61.8333,96.5 71.5,96.5C 71.5,114.5 71.5,132.5 71.5,150.5C 69.5,150.833 67.5,151.167 65.5,151.5C 65.6664,143.16 65.4997,134.827 65,126.5C 62.8343,122.989 60.001,121.656 56.5,122.5C 54.0274,122.088 52.6941,123.088 52.5,125.5C 51.7784,125.918 51.2784,126.584 51,127.5C 50.5003,135.493 50.3336,143.493 50.5,151.5C 48.5,151.5 46.5,151.5 44.5,151.5C 44.719,152.675 44.3857,153.675 43.5,154.5C 42.5004,135.178 42.1671,115.845 42.5,96.5 Z"/></g>
<g><path style="opacity:1" fill="#fefefe" d="M 73.5,96.5 C 88.5,96.5 103.5,96.5 118.5,96.5C 118.5,111.833 118.5,127.167 118.5,142.5C 103.5,142.5 88.5,142.5 73.5,142.5C 73.5,127.167 73.5,111.833 73.5,96.5 Z"/></g>
<g><path style="opacity:1" fill="#000000" d="M 53.5,103.5 C 56.1667,103.5 58.8333,103.5 61.5,103.5C 61.5,106.833 61.5,110.167 61.5,113.5C 59.5,113.5 57.5,113.5 55.5,113.5C 55.3293,102.854 54.8293,102.854 54,113.5C 53.5017,110.183 53.335,106.85 53.5,103.5 Z"/></g>
<g><path style="opacity:1" fill="#000000" d="M 82.5,104.5 C 85.5184,104.335 88.5184,104.502 91.5,105C 90.2343,107.383 89.5676,110.05 89.5,113C 89.5676,115.95 90.2343,118.617 91.5,121C 88.5184,121.498 85.5184,121.665 82.5,121.5C 82.5,115.833 82.5,110.167 82.5,104.5 Z"/></g>
<g><path style="opacity:1" fill="#191919" d="M 100.5,104.5 C 103.5,104.5 106.5,104.5 109.5,104.5C 109.5,110.167 109.5,115.833 109.5,121.5C 106.5,121.5 103.5,121.5 100.5,121.5C 100.5,115.833 100.5,110.167 100.5,104.5 Z"/></g>
<g><path style="opacity:1" fill="#a61111" d="M 19.5,121.5 C 20.8333,121.5 22.1667,121.5 23.5,121.5C 23.6665,131.506 23.4998,141.506 23,151.5C 21.9887,152.337 20.8221,152.67 19.5,152.5C 19.5,142.167 19.5,131.833 19.5,121.5 Z"/></g>
<g><path style="opacity:1" fill="#cb0000" d="M 20.5,122.5 C 21.8266,126.783 22.4933,131.449 22.5,136.5C 22.1667,141.167 21.8333,145.833 21.5,150.5C 20.5017,141.19 20.1684,131.857 20.5,122.5 Z"/></g>
<g><path style="opacity:1" fill="#000000" d="M 56.5,122.5 C 56.5,122.833 56.5,123.167 56.5,123.5C 54.9382,123.733 53.6049,124.4 52.5,125.5C 52.6941,123.088 54.0274,122.088 56.5,122.5 Z"/></g>
<g><path style="opacity:1" fill="#941818" d="M 140.5,121.5 C 141.833,121.5 143.167,121.5 144.5,121.5C 144.5,131.5 144.5,141.5 144.5,151.5C 143.368,152.354 142.035,152.354 140.5,151.5C 140.5,141.5 140.5,131.5 140.5,121.5 Z"/></g>
<g><path style="opacity:1" fill="#ba0708" d="M 141.5,122.5 C 142.827,126.783 143.493,131.449 143.5,136.5C 143.167,141.167 142.833,145.833 142.5,150.5C 141.502,141.19 141.168,131.857 141.5,122.5 Z"/></g>
<g><path style="opacity:1" fill="#2d0300" d="M 145.5,121.5 C 145.827,131.681 145.494,141.681 144.5,151.5C 144.5,141.5 144.5,131.5 144.5,121.5C 143.167,121.5 141.833,121.5 140.5,121.5C 142.091,117.596 143.758,117.596 145.5,121.5 Z"/></g>
<g><path style="opacity:1" fill="#fefffe" d="M 56.5,123.5 C 55.4955,124.683 54.6622,126.016 54,127.5C 53.8316,135.521 53.3316,143.521 52.5,151.5C 51.2549,142.818 51.2549,134.151 52.5,125.5C 53.6049,124.4 54.9382,123.733 56.5,123.5 Z"/></g>
<g><path style="opacity:1" fill="#1f0100" d="M 140.5,121.5 C 140.5,131.5 140.5,141.5 140.5,151.5C 138.527,142.225 137.86,132.558 138.5,122.5C 138.842,121.662 139.508,121.328 140.5,121.5 Z"/></g>
<g><path style="opacity:1" fill="#fefefe" d="M -0.5,130.5 C 6.22367,171.221 29.557,196.554 69.5,206.5C 46.1667,206.5 22.8333,206.5 -0.5,206.5C -0.5,181.167 -0.5,155.833 -0.5,130.5 Z"/></g>
<g><path style="opacity:1" fill="#fefefe" d="M 165.5,132.5 C 165.5,157.167 165.5,181.833 165.5,206.5C 142.167,206.5 118.833,206.5 95.5,206.5C 100.336,204.869 105.336,203.369 110.5,202C 141.429,188.595 159.762,165.428 165.5,132.5 Z"/></g>
<g><path style="opacity:1" fill="#fefefe" d="M 73.5,144.5 C 89.5,144.5 105.5,144.5 121.5,144.5C 121.823,148.226 121.489,151.893 120.5,155.5C 117.146,158.021 114.312,161.021 112,164.5C 102.685,151.061 90.0188,146.061 74,149.5C 73.5065,147.866 73.3398,146.199 73.5,144.5 Z"/></g>
<g><path style="opacity:1" fill="#026534" d="M 73.5,150.5 C 90.2341,147.785 103.067,153.452 112,167.5C 120.444,154.088 132.277,149.921 147.5,155C 149.5,156.333 151.5,157.667 153.5,159C 128.965,199.292 94.2979,211.626 49.5,196C 33.3849,187.719 21.0516,175.552 12.5,159.5C 13.5948,157.38 15.2615,155.88 17.5,155C 32.733,149.923 44.5663,154.09 53,167.5C 56.1667,163.667 59.3333,159.833 62.5,156C 66.3277,154.302 69.9943,152.468 73.5,150.5 Z"/></g>
<g><path style="opacity:1" fill="#fefefe" d="M 45.5,152.5 C 51.5092,152.334 57.5092,152.501 63.5,153C 59.2905,156.208 55.7905,160.042 53,164.5C 51.0394,161.537 48.706,158.871 46,156.5C 45.51,155.207 45.3433,153.873 45.5,152.5 Z"/></g>
</svg>

<svg xmlns="http://www.w3.org/2000/svg" width="166" height="207" style="shape-rendering:geometricPrecision;text-rendering:geometricPrecision;image-rendering:optimizeQuality;fill-rule:evenodd;clip-rule:evenodd"><path style="opacity:1" fill="#010100" d="M-.5-.5h166v133c-5.738 32.928-24.071 56.095-55 69.5a236.853 236.853 0 0 0-15 4.5h-26c-39.943-9.946-63.276-35.279-70-76V-.5z"/><path style="opacity:1" fill="#066335" d="M19.5 121.5c-4.872 1.969-9.872 3.136-15 3.5 5.66-4.501 9.993-10.001 13-16.5-1.29-.908-2.623-.741-4 .5a25.238 25.238 0 0 1-10 0c6.424-4.913 11.09-11.08 14-18.5-1.29-.908-2.623-.741-4 .5a25.249 25.249 0 0 1-10 0 76.268 76.268 0 0 0 14-18.5l-.5-1c-3.595 1.956-7.428 2.456-11.5 1.5A60.184 60.184 0 0 0 17 58.5c.78-1.444.614-2.777-.5-4-2.016 1.206-4.016 1.206-6 0 3.885-4.657 6.219-9.99 7-16a18.436 18.436 0 0 1-6-.5c5.832-7.842 9.332-16.675 10.5-26.5 1.162 9.815 4.662 18.648 10.5 26.5a18.436 18.436 0 0 1-6 .5c.878 6.138 3.211 11.638 7 16.5-2.067.687-4.067.52-6-.5-1.083.865-1.25 1.865-.5 3 2.291 6.294 6.125 11.46 11.5 15.5-3.836.306-7.503.472-11 .5 2.511 6.515 6.178 12.348 11 17.5-3.744.928-7.244.428-10.5-1.5-.246 3.676.754 7.01 3 10a40.565 40.565 0 0 0 9.5 9l-5 1c-3.185-.111-6.185-.611-9-1.5 2.81 7.148 7.477 12.815 14 17-7.062.423-13.23-1.743-18.5-6.5-1.417.578-2.25 1.578-2.5 3z"/><path style="opacity:1" fill="#076335" d="M145.5 121.5c-1.742-3.904-3.409-3.904-5 0-.992-.172-1.658.162-2 1-4.265 1.482-8.598 2.316-13 2.5 5.659-4.501 9.993-10.001 13-16.5-1.29-.908-2.623-.741-4 .5a25.238 25.238 0 0 1-10 0c6.424-4.913 11.091-11.08 14-18.5-1.29-.908-2.623-.741-4 .5a16.25 16.25 0 0 1-8 0c5.801-5.45 9.635-11.95 11.5-19.5-3.595 1.956-7.428 2.456-11.5 1.5A60.174 60.174 0 0 0 138 58.5c.781-1.444.614-2.777-.5-4-2.016 1.206-4.016 1.206-6 0 3.976-4.618 6.309-9.952 7-16a18.437 18.437 0 0 1-6-.5c6.109-8.071 9.609-17.238 10.5-27.5 1.152 10.132 4.652 19.299 10.5 27.5a18.437 18.437 0 0 1-6 .5c.875 6.128 3.209 11.628 7 16.5-2.068.687-4.068.52-6-.5-1.083.865-1.249 1.865-.5 3 2.291 6.294 6.125 11.46 11.5 15.5-3.836.306-7.503.472-11 .5a58.75 58.75 0 0 0 13 17.5c-4.4.978-8.567.478-12.5-1.5-.246 3.676.754 7.01 3 10a40.56 40.56 0 0 0 9.5 9l-5 1c-3.185-.111-6.185-.611-9-1.5 2.81 7.148 7.477 12.815 14 17-5.601.192-10.934-.975-16-3.5z"/><path style="opacity:1" fill="#ef9b22" d="M57.5 41.5h3v4h5v4h-5v6h-3v-6h-4v-4h4v-4z"/><path style="opacity:1" fill="#f19b1f" d="M101.5 41.5c1.676.683 2.343 2.017 2 4h5v4h-5c-.667 8-1.333 8-2 0h-5v-4h5v-4z"/><path style="opacity:1" fill="#a71010" d="M60.5 57.5a484.62 484.62 0 0 1 44 1h-42l2 9c-1.903-3.03-3.236-6.363-4-10z"/><path style="opacity:1" fill="#ca0001" d="M104.5 58.5c2.148 8.812 5.814 16.812 11 24 .248 4.244 1.581 8.078 4 11.5-14.329.5-28.663.667-43 .5a487.033 487.033 0 0 1-12-27l-2-9h42z"/><path style="opacity:1" fill="#c60303" d="M58.5 59.5a493.93 493.93 0 0 1 14 33c-9.61 1.974-19.61 2.641-30 2v-4c4.838-11.009 9.672-22.009 14.5-33 .278.916.778 1.583 1.5 2z"/><path style="opacity:1" fill="#a91110" d="M104.5 58.5c4.416 7.55 8.083 15.55 11 24-5.186-7.188-8.852-15.188-11-24z"/><path style="opacity:1" fill="#a61111" d="M42.5 90.5v4c10.39.641 20.39-.026 30-2 .904.709 1.237 1.709 1 3h-33v-3l2-2z"/><path style="opacity:1" fill="#a71010" d="M115.5 82.5a79.2 79.2 0 0 1 6 13 506.865 506.865 0 0 1-45-1c14.337.167 28.671 0 43-.5-2.419-3.422-3.752-7.256-4-11.5z"/><path style="opacity:1" fill="#270100" d="M60.5 57.5c.764 3.637 2.097 6.97 4 10a487.033 487.033 0 0 0 12 27 506.865 506.865 0 0 0 45 1c-.709.904-1.709 1.237-3 1h-79c-.268-1.599.066-2.932 1-4v3h33c.237-1.291-.096-2.291-1-3a493.93 493.93 0 0 0-14-33l2-2z"/><path style="opacity:1" fill="#fefefe" d="M42.5 96.5h29v54l-6 1c.166-8.34 0-16.673-.5-25-2.166-3.511-4.999-4.844-8.5-4-2.473-.412-3.806.588-4 3-.722.418-1.222 1.084-1.5 2-.5 7.993-.666 15.993-.5 24h-6c.219 1.175-.114 2.175-1 3a841.9 841.9 0 0 1-1-58zM73.5 96.5h45v46h-45v-46z"/><path style="opacity:1" d="M53.5 103.5h8v10h-6c-.17-10.646-.67-10.646-1.5 0a50.442 50.442 0 0 1-.5-10zM82.5 104.5a40.911 40.911 0 0 1 9 .5c-1.266 2.383-1.932 5.05-2 8 .068 2.95.734 5.617 2 8a40.911 40.911 0 0 1-9 .5v-17z"/><path style="opacity:1" fill="#191919" d="M100.5 104.5h9v17h-9v-17z"/><path style="opacity:1" fill="#a61111" d="M19.5 121.5h4c.166 10.006 0 20.006-.5 30-1.011.837-2.178 1.17-3.5 1v-31z"/><path style="opacity:1" fill="#cb0000" d="M20.5 122.5c1.327 4.283 1.993 8.949 2 14l-1 14a196.883 196.883 0 0 1-1-28z"/><path style="opacity:1" d="M56.5 122.5v1c-1.562.233-2.895.9-4 2 .194-2.412 1.527-3.412 4-3z"/><path style="opacity:1" fill="#941818" d="M140.5 121.5h4v30c-1.132.854-2.465.854-4 0v-30z"/><path style="opacity:1" fill="#ba0708" d="M141.5 122.5c1.327 4.283 1.993 8.949 2 14l-1 14a196.869 196.869 0 0 1-1-28z"/><path style="opacity:1" fill="#2d0300" d="M145.5 121.5c.327 10.181-.006 20.181-1 30v-30h-4c1.591-3.904 3.258-3.904 5 0z"/><path style="opacity:1" fill="#fefffe" d="M56.5 123.5a16.57 16.57 0 0 0-2.5 4 290.18 290.18 0 0 1-1.5 24 90.955 90.955 0 0 1 0-26c1.105-1.1 2.438-1.767 4-2z"/><path style="opacity:1" fill="#1f0100" d="M140.5 121.5v30c-1.973-9.275-2.64-18.942-2-29 .342-.838 1.008-1.172 2-1z"/><path style="opacity:1" fill="#fefefe" d="M-.5 130.5c6.724 40.721 30.057 66.054 70 76h-70v-76zM165.5 132.5v74h-70a236.853 236.853 0 0 1 15-4.5c30.929-13.405 49.262-36.572 55-69.5zM73.5 144.5h48a31.116 31.116 0 0 1-1 11 36.358 36.358 0 0 0-8.5 9c-9.315-13.439-21.981-18.439-38-15a12.935 12.935 0 0 1-.5-5z"/><path style="opacity:1" fill="#026534" d="M73.5 150.5c16.734-2.715 29.567 2.952 38.5 17 8.444-13.412 20.277-17.579 35.5-12.5l6 4c-24.535 40.292-59.202 52.626-104 37-16.115-8.281-28.448-20.448-37-36.5 1.095-2.12 2.761-3.62 5-4.5 15.233-5.077 27.066-.91 35.5 12.5l9.5-11.5a130.842 130.842 0 0 0 11-5.5z"/><path style="opacity:1" fill="#fefefe" d="M45.5 152.5c6.01-.166 12.01.001 18 .5A43.106 43.106 0 0 0 53 164.5a39.793 39.793 0 0 0-7-8 8.435 8.435 0 0 1-.5-4z"/></svg>
